src/assets/metronic/worbby/global/img/icon-creative.svg

<?xml version="1.0" encoding="UTF-8"?>
<svg width="45px" height="45px" viewBox="0 0 45 45" version="1.1" xmlns="http://www.w3.org/2000/svg" xmlns:xlink="http://www.w3.org/1999/xlink">
    <!-- Generator: Sketch 41.2 (35397) - http://www.bohemiancoding.com/sketch -->
    <title>icon-creative</title>
    <desc>Created with Sketch.</desc>
    <defs>
        <linearGradient x1="0%" y1="49.9979293%" x2="99.9874969%" y2="49.9979293%" id="linearGradient-1">
            <stop stop-color="#FFB247" offset="0%"></stop>
            <stop stop-color="#FFCB33" offset="100%"></stop>
        </linearGradient>
    </defs>
    <g id="Worbby-Needor" stroke="none" stroke-width="1" fill="none" fill-rule="evenodd">
        <g id="Categories-List-All" transform="translate(-20.000000, -916.000000)">
            <g id="icon-creative" transform="translate(20.000000, 916.000000)">
                <g>
                    <path d="M26.25,37.5 C36.60525,37.5 45,29.10525 45,18.75 C45,8.39475 36.60525,0 26.25,0 C15.89475,0 7.5,8.39475 7.5,18.75 C7.5,29.10525 15.89475,37.5 26.25,37.5" id="Fill-1" fill="url(#linearGradient-1)"></path>
                    <path d="M16.5442122,33.2872159 C16.3072122,33.0502159 15.9959622,32.9317159 15.6839622,32.9317159 C15.3719622,32.9317159 15.0599622,33.0502159 14.8229622,33.2872159 C14.3482122,33.7619659 14.3482122,34.5344659 14.8229622,35.0092159 C15.2962122,35.4832159 16.0687122,35.4839659 16.5442122,35.0092159 C17.0189622,34.5344659 17.0189622,33.7619659 16.5442122,33.2872159 L16.5442122,33.2872159 Z M30.2084622,36.0847159 C29.3212122,39.4019659 27.0284622,42.1199659 23.7547122,43.7392159 C22.0934622,44.5597159 20.2709622,44.9489659 18.4454622,44.9489659 C14.3242122,44.9489659 10.1879622,42.9659659 7.86521216,39.4882159 C6.49046216,37.4287159 6.06521216,35.0527159 6.66896216,32.7959659 C7.27271216,30.5399659 8.82746216,28.6934659 11.0467122,27.5969659 C14.7142122,25.7842159 19.5472122,27.0764659 21.8182122,30.4784659 C22.7744622,31.9109659 23.0692122,33.5684659 22.6469622,35.1457159 C22.2254622,36.7222159 21.1424622,38.0114659 19.5982122,38.7749659 C17.0032122,40.0574659 13.7099622,39.1769659 12.1027122,36.7694659 C11.4134622,35.7382159 11.2027122,34.5404659 11.5087122,33.3982159 C11.8139622,32.2559659 12.5947122,31.3237159 13.7062122,30.7732159 C15.5752122,29.8499659 17.9482122,30.4837159 19.1062122,32.2184659 C19.6162122,32.9819659 19.7782122,33.9082159 19.5502122,34.7602159 C19.3702122,35.4344659 18.9539622,36.0277159 18.3809622,36.4477159 C18.3989622,36.4394659 18.4169622,36.4304659 18.4349622,36.4214659 C19.2922122,35.9977159 19.8877122,35.3032159 20.1112122,34.4669659 C20.3354622,33.6299659 20.1659622,32.7314659 19.6357122,31.9364659 C18.0689622,29.5904659 14.7389622,28.6994659 12.2099622,29.9497159 C10.6777122,30.7072159 9.61046216,31.9589659 9.20471216,33.4747159 C8.79971216,34.9904659 9.09896216,36.6089659 10.0484622,38.0302159 C12.6937122,41.9909659 18.3202122,43.4984659 22.5914622,41.3857159 C25.1789622,40.1069659 26.9827122,37.9829659 27.6727122,35.4067159 C28.3619622,32.8297159 27.8587122,30.0884659 26.2559622,27.6884659 C25.8532122,27.0854659 26.0152122,26.2709659 26.6189622,25.8682159 C27.2212122,25.4654659 28.0364622,25.6282159 28.4384622,26.2304659 C30.4672122,29.2679659 31.0957122,32.7682159 30.2084622,36.0847159 L30.2084622,36.0847159 Z M7.46546216,27.2729659 L2.45846216,18.3082159 C2.10521216,17.6744659 1.30421216,17.4479659 0.672712159,17.8019659 C0.0397121586,18.1552159 -0.186787841,18.9547159 0.167212159,19.5877159 L5.17346216,28.5524659 C5.41346216,28.9829659 5.86046216,29.2252159 6.32021216,29.2252159 C6.53696216,29.2252159 6.75671216,29.1719659 6.95921216,29.0587159 C7.59221216,28.7054659 7.81871216,27.9059659 7.46546216,27.2729659 L7.46546216,27.2729659 Z M8.80946216,24.9614659 C8.99471216,25.5082159 9.50546216,25.8532159 10.0529622,25.8532159 C10.1924622,25.8532159 10.3342122,25.8307159 10.4737122,25.7834659 C11.1599622,25.5509659 11.5289622,24.8054659 11.2957122,24.1192159 L6.95921216,11.3129659 C6.72671216,10.6267159 5.98196216,10.2577159 5.29421216,10.4902159 C4.60796216,10.7234659 4.23971216,11.4682159 4.47221216,12.1552159 L8.80946216,24.9614659 Z M13.0979622,23.5762159 C13.2157122,24.2077159 13.7669622,24.6479659 14.3872122,24.6479659 C14.4667122,24.6479659 14.5477122,24.6412159 14.6287122,24.6254659 C15.3412122,24.4927159 15.8114622,23.8072159 15.6787122,23.0947159 L12.5054622,6.07271592 C12.3727122,5.36021592 11.6864622,4.88696592 10.9747122,5.02346592 C10.2622122,5.15621592 9.79196216,5.84171592 9.92471216,6.55421592 L13.0979622,23.5762159 Z M18.0134622,24.3179659 L17.7584622,6.69371592 C17.7479622,5.96846592 18.3269622,5.37221592 19.0522122,5.36171592 C19.7602122,5.36171592 20.3722122,5.93021592 20.3834622,6.65546592 L20.6384622,24.2797159 C20.6489622,25.0042159 20.0699622,25.6004659 19.3454622,25.6109659 L19.3259622,25.6109659 C18.6097122,25.6109659 18.0247122,25.0357159 18.0134622,24.3179659 L18.0134622,24.3179659 Z" id="Fill-3" fill="#1E2225"></path>
                </g>
            </g>
        </g>
    </g>
</svg>

<svg xmlns="http://www.w3.org/2000/svg" width="45" height="45"><defs><linearGradient id="a" x1="0%" x2="99.9875%" y1="49.9979%" y2="49.9979%"><stop stop-color="#FFB247" offset="0%"/><stop stop-color="#FFCB33" offset="100%"/></linearGradient></defs><g fill="none" fill-rule="evenodd"><path fill="url(#a)" d="M26.25 37.5C36.6052 37.5 45 29.1053 45 18.75 45 8.3948 36.6052 0 26.25 0S7.5 8.3948 7.5 18.75c0 10.3553 8.3948 18.75 18.75 18.75"/><path fill="#1E2225" d="M16.5442 33.2872c-.237-.237-.5482-.3555-.8602-.3555-.312 0-.624.1185-.861.3555-.4748.4748-.4748 1.2473 0 1.722.4732.474 1.2457.4748 1.7212 0 .4748-.4747.4748-1.2472 0-1.722zm13.6643 2.7975c-.8873 3.3173-3.18 6.0353-6.4538 7.6545-1.6612.8205-3.4837 1.2098-5.3092 1.2098-4.1213 0-8.2575-1.983-10.5803-5.4608-1.3747-2.0595-1.8-4.4355-1.1962-6.6922.6037-2.256 2.1585-4.1025 4.3777-5.199 3.6675-1.8128 8.5005-.5205 10.7715 2.8815.9563 1.4325 1.251 3.09.8288 4.6672-.4215 1.5765-1.5045 2.8658-3.0488 3.6293-2.595 1.2825-5.8882.402-7.4955-2.0055-.6892-1.0313-.9-2.229-.594-3.3713.3053-1.1422 1.086-2.0745 2.1975-2.625 1.869-.9232 4.242-.2895 5.4 1.4453.51.7635.672 1.6897.444 2.5417-.18.6743-.5962 1.2675-1.1692 1.6875.018-.0082.036-.0172.054-.0262.8572-.4238 1.4527-1.1183 1.6762-1.9545.2243-.837.0548-1.7355-.4755-2.5305-1.5667-2.346-4.8967-3.237-7.4257-1.9868-1.5323.7575-2.5995 2.0093-3.0053 3.525-.405 1.5158-.1057 3.1343.8438 4.5555 2.6452 3.9608 8.2717 5.4683 12.543 3.3555 2.5875-1.2787 4.3912-3.4027 5.0812-5.979.6893-2.577.186-5.3182-1.4167-7.7182-.4028-.603-.2408-1.4175.363-1.8203.6022-.4027 1.4175-.24 1.8195.3623 2.0287 3.0375 2.6572 6.5377 1.77 9.8542zM7.4655 27.273l-5.007-8.9648c-.3533-.6337-1.1543-.8602-1.7858-.5062-.633.3532-.8595 1.1527-.5055 1.7857l5.0063 8.9648c.24.4305.687.6727 1.1467.6727.2168 0 .4365-.0532.639-.1665.633-.3532.8595-1.1527.5063-1.7857zm1.344-2.3115c.1852.5467.696.8917 1.2435.8917.1395 0 .2812-.0225.4207-.0697.6863-.2325 1.0553-.978.822-1.6643L6.9592 11.313c-.2325-.6863-.9772-1.0553-1.665-.8228-.6862.2333-1.0545.978-.822 1.665l4.3373 12.8063zm4.2885-1.3853c.1177.6315.669 1.0718 1.2892 1.0718.0795 0 .1605-.0068.2415-.0225.7125-.1328 1.1828-.8183 1.05-1.5308l-3.1732-17.022c-.1328-.7125-.819-1.1857-1.5308-1.0492-.7125.1327-1.1827.8182-1.05 1.5307l3.1733 17.022zm4.9155.7418l-.255-17.6243c-.0105-.7252.5685-1.3215 1.2937-1.332.708 0 1.32.5685 1.3313 1.2938l.255 17.6242c.0105.7245-.5685 1.3208-1.293 1.3313h-.0195c-.7163 0-1.3013-.5753-1.3125-1.293z"/></g></svg>
